X:7139
T:The Nine Points of Roguery
O:england
M:4/4
L:1/8
Q:220
C:Trad Irish
K:D
D2 FD GEFD|DEFG ABAF|D2 FD GEFA|BE E2 BEGE|
D2 FD GEFD|DEFG ABAF|D2 FA GBAc|1]d2 dc d3 z:|2]d2 dc d2||
AB|=c3 A B3 G|A2 AB AGFE|D2 FD GEFA|BE E2 BEGB|
=c3 A B3 G|Ad d2 fdAF|D2 FA GBAc|1]d2 dc d2:|2]d2 dc d3 z||
d2 fd gefd|defg abaf|d2 fd gefa|be e2 bege|
d2 fd gefd|defg abaf|d2 fa gece|1]d2 dc d3 z:|2]d2 dc d2||
AB|=c3 A B3 G|A2 AB AGFE|D2 FD GEFA|BE E2 BEGB|
=c3 A B3 G|Ad d2 fdAF|D2 FA GBAc|1]d2 dc d2:|2]d2 dc d3 z||


